!!!OTL: Die Hoffnung.
!!!OTL-incipit:ES REDEN UND TRAEUMEN DIE MENSCHEN
!!!COM: J. Fr. Reichardt
!!!ARE: Europa, Mitteleuropa, Deutschland
!!!SCT: F0301
!!!TXL: @@DE
!!!YEM: Copyright 1995, estate of Helmut Schaffrath.
**kern	**text
*ICvox	*
*clefG2	*
*M6/8	*
*k[b-e-]	*
*B-:	*
!LO:TX:a:t=Mäßig.	!
{8f	1._Es
=1	=1
8.dd	re-
16cc	-den
8b-	und
8.b-	träumen
16a	.
8g	die
=2	=2
4f	Menſchen
8f	.
4f}	viel
{8f	von
=3	=3
8.b-	beſ-
16a	-ſe-
8b-	-ren
8.cc	künf-
16b-	-ti-
8cc	-gen
=4	=4
4.dd	Ta-
8cc	-gen;
8r}	.
{8f	nach
=5	=5
8.ddL	ei-
16ccJ	.
8b-	-nem
8.ff	glückli-
16een	.
8dd	-chen
=6	=6
8.cc	gol-
16dd	-de-
8cc	-nen
4cc}	Ʒiel
{8cc	ſieht
=7	=7
4dd	man
8een	ſie
8.ff	rennen
16cc	.
8a	und
=8	=8
4.cc	ja-
8f	-gen.
8r}	.
{8f	Die
=9	=9
4cc	Welt
8f	wird
4dd	alt
16f	und
16f	wird
=10	=10
4ee-X	wie-
8cc	-der
4ff}	jung;
{16dd	doch
16b-	der
=11	=11
4gg	Menſch
8gg	hofft
8.gg	im-
16ee-	-mer
8cc	Ver-
=12	=12
[4.ff	-beſ-
4ff]	.
8a	-ſe-
=13	=13
4b-	-rung.
8r	.
4r}	.
==	==
!!!AGN: Jugend - Lied, Belehrung, Moral, Hoffnung
!!!ONB: ESAC (Essen Associative Code) Database: FINK
!!!AMT: compound duple
!!!AIN: vox
!!!EED: Helmut Schaffrath
!!!EEV: 1.0
!!!GTL: Jugendlieder
!!Text: Fr. Schiller
!!!source: Musikalischer Hausschatz der Deutschen. Eine Sammlung von über 1000 Liedern und Gesängen mit Singstimmen und Klavierbegleitung. Leipzig, Litterarisches Verlags-Haus.
!!!page: 180
!!!URL-scan: https://www.digitale-sammlungen.de/en/view/bsb11144622?page=178,179
!!!ENC: Anna Maria Matuszewska
!!!EEV: 2024/07/30
*-	*-
